X: 3053
T: Beach Spring
R: waltz
M: 3/4
K: Gmajor
|:GG|A2 G2 BB|AG E2 GG|E2 D2 EG|G4:|
GB|d2 d2 ed|B2 G2 GB|d2 G2 B/A/G|E4 ed|
B2 G2 BB|AG E2 GG|E2 D2 EG|G4||

